X:160
T:Nancy Orr Hawkins
R:planxty
C:2014 L.E. McCullough 
M:4/4
L:1/8
K:Eminor
z4 z2GB||: d3B cBAG | (3FGA EF D2 GF | ~E3G FAdc| 
BABG A2 GB | d3B cBAG | (3FGA (3GFE D2 GF | ~E3G FABd |
|1 edfd e2GB :||2 edfd e2gf ||: ~e3f e~B3 | (3dcB AB d2 BA | 
~G3A FAdf |gfed e2 ed | ~B3d ~A3d | (3AGF (3GFE  D2 FD | 
~E3G BABd |1 ga (3gfd e2gf :||2 ga (3gfd e2GB||
